X:1
T:Thank God for the Blood
T:Thank God for the Blood
T:Garfield Thomas Haywood
T:Garfield Thomas Haywood, 1919
T:Public Domain Courtesy of the Cyber Hymnal™
C:Garfield Thomas Haywood
Z:Public Domain
Z:Courtesy of the Cyber Hymnal™
%%score ( 1 2 ) ( 3 4 )
L:1/8
Q:1/4=108
M:4/4
K:G
V:1 treble 
V:2 treble 
V:3 bass 
V:4 bass 
V:1
 [DG]2 | [GB]2 [GB]2 [FB]2 (AB) | [DG]2 [EG]2 [DG]2 [GB]2 | [FA]2 [FA]2 [FA]2 ([EG][FA]) | %4
w: 1.~In|sin I wan- dered *|sore and sad With|bleed- ing heart and *|
w: 2.~I|gave my heart, my *|life, my all To|Him who drank the *|
w: 3.~The|wa- ter, Spir- it *|and the blood A-|gree, if we but *|
w: 4.~How|won- der- ful God’s *|might- y plan! How|grace the aw- ful *|
w: 5.~We|can- not know, we *|may not tell How|we are saved from *|
 [GB]2 [DB]2 (AG) [DG]2 | [GB]2 [GB]2 [FB]2 (AB) | G2 [EG]2 [DG]2 [DB]2 | [EA]2 [Ec]2 [DB]2 [DA]2 | %8
w: ach- ing head, * Till|Je- sus came and *|sweet- ly said, “I’ll|take thy sins a-|
w: cup of gall * To|raise the guil- ty *|from the fall And|take their sins a-|
w: un- der- stood, * In|mak- ing sin- ners *|pure and good, And|take their sins a-|
w: guilt did span * When|He took on the *|form of man To|take our sins a-|
w: death and hell; * Thru|faith we know that *|all is well— He|took our sins a-|
 [DG]6 ||"^Refrain" G2 | (z2 [FA])[FB] x6 | G6 B2 | (z2 [EG])[FA] x6 | B6 B2 | (z2 [FA])[FB] x6 | %15
w: way.”|||||||
w: way.|||||||
w: way.|Thank|* God|for the|* blood!|Thank God|* for|
w: way.|||||||
w: way.|||||||
 (z2 B2) x8 | [EA]2 [Ac]2 [GB]2 [FA]2 | [DG]6 |] %18
w: |||
w: |||
w: |the blood! Thank God|for|
w: |||
w: |||
V:2
 x2 | x6 F2 | x8 | x8 | x4 E2 x2 | x6 F2 | G2 x6 | x8 | x6 || x2 | (B6 G2 G2) | (D2 E2 D2) x2 | %12
 (A6 F2 F2) | (G2 E2 D2) x2 | (B6 G2 G2) | (G6 E2 D2) (GF) | x8 | x6 |] %18
V:3
 [G,B,]2 | [G,D]2 [G,D]2 [D,C]2 [D,C]2 | [G,B,]2 [G,C]2 [G,B,]2 [G,D]2 | %3
w: ~|~ ~ ~ ~|~ ~ ~ ~|
 [D,C]2 [D,C]2 [D,C]2 [D,C]2 | [G,D]2 [G,B,]2 [G,C]2 [G,B,]2 | [G,D]2 [G,D]2 [D,C]2 [D,C]2 | %6
w: ~ ~ ~ ~|~ ~ ~ ~|~ ~ ~ ~|
 [E,B,]2 [C,C]2 [B,,G,]2 [G,,G,]2 | [C,G,]2 [A,,G,]2 [D,G,]2 [D,C]2 | [G,,G,B,]6 || z2 | %10
w: ~ ~ ~ ~|~ ~ ~ ~|~||
 z2 [G,D]2 [G,D]2 [D,C][D,C] x2 | [G,B,]2 [G,C]2 [G,C]2 z2 | z2 [D,C]2 [D,C]2 [E,A,][D,C] x2 | %13
w: Thank God for the|cleans- ing blood!|Thank God for the|
 [G,D]2 [G,B,]2 G,2 z2 | z2 [G,D]2 [G,D]2 [D,C][^D,C] x2 | [E,B,]2 [C,C]2 [B,,D]2 [G,,D]2 x4 | %16
w: crim- son blood!|Thank God for the|Sav- ior’s blood *|
 [C,C]2 [A,,E]2 [D,D]2 [D,C]2 | [G,,G,B,]6 |] %18
w: ||
V:4
 x2 | x8 | x8 | x8 | x8 | x8 | x8 | x8 | x6 || x2 | x10 | x8 | x10 | x4 G,2 x2 | x10 | x12 | x8 | %17
 x6 |] %18

